src/main/webapp/iaf/editor/app/media/icons/login.svg

<svg height="32" viewBox="0 0 32 32" width="32" xmlns="http://www.w3.org/2000/svg"><title/><path d="M27 3v26a1 1 0 0 1-1 1H6a1 1 0 0 1-1-1v-2h2v1h18V4H7v3H5V3a1 1 0 0 1 1-1h20a1 1 0 0 1 1 1zM12.29 20.29l1.42 1.42 5-5a1 1 0 0 0 0-1.42l-5-5-1.42 1.42 3.3 3.29H5v2h10.59z" data-name="1"/></svg>

<?xml version="1.0" ?><svg height="32" viewBox="0 0 32 32" width="32" xmlns="http://www.w3.org/2000/svg"><title/><g data-name="1" id="_1"><path d="M27,3V29a1,1,0,0,1-1,1H6a1,1,0,0,1-1-1V27H7v1H25V4H7V7H5V3A1,1,0,0,1,6,2H26A1,1,0,0,1,27,3ZM12.29,20.29l1.42,1.42,5-5a1,1,0,0,0,0-1.42l-5-5-1.42,1.42L15.59,15H5v2H15.59Z" id="login_account_enter_door"/></g></svg>
